X:365
T:Rigodoon
A:Wyresdale, Lancashire
B:E and J Winder, 1835-41
L:1/4
M:6/4
N:"a good tune"
O:England
Z:Richard Robinson 
%%TUNEURL: http://www.leeds.ac.uk/music/Info/RRTuneBk/gettune/00000ebd.html
%%ID:00000ebd
K:G min
d |\
g>a^f g2d | edc dcB | ABG ^F2G | A3-A2 ::
d/c/ |\
=Bgd Bgd | edc cBA | BAG bag | ^fad cdB | ADB A>G^F | G3-G2 :|
